X: 69
M:6/8
L:1/8
Q:160
K:C
| g2 f e2 B|c2 d Ade| f2 e d B2|A3 GAB| c2 B A E2| F2 E DAB| cde f2 e d3 c3:|

